X: 38246
T: Squirrel Up A Tree
R: jig
M: 6/8
K: Gmajor
|:dc|BBB BBB|B2 A GAB|ccc ccc|c2 d efg|
fff fff|fed cBA|1 GB/c/d e2 d|B3- B:|2 GBd b2 a|g3- g||
|:dg|bbb bbb|b2 a gfe|ddd ddd|d2 c Bdg|
fff fff|fed cBA|1 GB/c/d e2 d|B3- B:|2 GBd b2 a|g3- g||

